images/icons/instagram_icon_large.svg

<svg width="35" height="35" viewBox="0 0 35 35" fill="none" xmlns="http://www.w3.org/2000/svg">
<circle cx="17.5" cy="17.5" r="17.5" fill="url(#paint0_radial_590_64)"/>
<circle cx="17.5" cy="17.5" r="17.5" fill="url(#paint1_radial_590_64)"/>
<path d="M13.3796 7.68942H21.6205C24.7599 7.68942 27.3107 10.2402 27.3107 13.3796V21.6205C27.3107 23.1296 26.7112 24.5769 25.6441 25.644C24.5769 26.7111 23.1296 27.3106 21.6205 27.3106H13.3796C10.2402 27.3106 7.68945 24.7599 7.68945 21.6205V13.3796C7.68945 11.8705 8.28895 10.4231 9.35606 9.35603C10.4232 8.28892 11.8705 7.68942 13.3796 7.68942ZM13.1834 9.65154C12.2467 9.65154 11.3484 10.0236 10.686 10.686C10.0237 11.3483 9.65157 12.2467 9.65157 13.1834V21.8167C9.65157 23.769 11.2311 25.3485 13.1834 25.3485H21.8167C22.7534 25.3485 23.6518 24.9764 24.3141 24.3141C24.9764 23.6517 25.3485 22.7534 25.3485 21.8167V13.1834C25.3485 11.2311 23.769 9.65154 21.8167 9.65154H13.1834ZM22.6506 11.1231C22.9759 11.1231 23.2878 11.2523 23.5178 11.4823C23.7478 11.7123 23.877 12.0242 23.877 12.3495C23.877 12.6747 23.7478 12.9866 23.5178 13.2166C23.2878 13.4466 22.9759 13.5758 22.6506 13.5758C22.3254 13.5758 22.0135 13.4466 21.7835 13.2166C21.5535 12.9866 21.4243 12.6747 21.4243 12.3495C21.4243 12.0242 21.5535 11.7123 21.7835 11.4823C22.0135 11.2523 22.3254 11.1231 22.6506 11.1231ZM17.5001 12.5947C18.801 12.5947 20.0487 13.1115 20.9686 14.0315C21.8886 14.9514 22.4054 16.1991 22.4054 17.5C22.4054 18.801 21.8886 20.0487 20.9686 20.9686C20.0487 21.8885 18.801 22.4053 17.5001 22.4053C16.1991 22.4053 14.9514 21.8885 14.0315 20.9686C13.1116 20.0487 12.5948 18.801 12.5948 17.5C12.5948 16.1991 13.1116 14.9514 14.0315 14.0315C14.9514 13.1115 16.1991 12.5947 17.5001 12.5947ZM17.5001 14.5568C16.7195 14.5568 15.9709 14.8669 15.4189 15.4189C14.867 15.9708 14.5569 16.7194 14.5569 17.5C14.5569 18.2806 14.867 19.0292 15.4189 19.5812C15.9709 20.1331 16.7195 20.4432 17.5001 20.4432C18.2806 20.4432 19.0292 20.1331 19.5812 19.5812C20.1332 19.0292 20.4432 18.2806 20.4432 17.5C20.4432 16.7194 20.1332 15.9708 19.5812 15.4189C19.0292 14.8669 18.2806 14.5568 17.5001 14.5568Z" fill="white"/>
<defs>
<radialGradient id="paint0_radial_590_64" cx="0" cy="0" r="1" gradientUnits="userSpaceOnUse" gradientTransform="translate(29.575 39.725) rotate(-115.776) scale(47.7289 70.9914)">
<stop offset="0.24392" stop-color="#FF1B90"/>
<stop offset="0.436673" stop-color="#F80261"/>
<stop offset="0.688476" stop-color="#ED00C0"/>
<stop offset="0.776787" stop-color="#C500E9"/>
<stop offset="0.893155" stop-color="#7017FF"/>
</radialGradient>
<radialGradient id="paint1_radial_590_64" cx="0" cy="0" r="1" gradientUnits="userSpaceOnUse" gradientTransform="translate(12.6875 33.7925) rotate(-57.4396) scale(20.6805 21.5107)">
<stop stop-color="#FFD600"/>
<stop offset="0.484375" stop-color="#FF6930"/>
<stop offset="0.734375" stop-color="#FE3B36"/>
<stop offset="1" stop-color="#FE3B36" stop-opacity="0"/>
</radialGradient>
</defs>
</svg>

<svg xmlns="http://www.w3.org/2000/svg" width="35" height="35" fill="none"><circle cx="17.5" cy="17.5" r="17.5" fill="url(#a)"/><circle cx="17.5" cy="17.5" r="17.5" fill="url(#b)"/><path fill="#fff" d="M13.38 7.689h8.241a5.694 5.694 0 0 1 5.69 5.69v8.241a5.69 5.69 0 0 1-5.69 5.69H13.38a5.694 5.694 0 0 1-5.69-5.69v-8.24a5.69 5.69 0 0 1 5.69-5.69zm-.196 1.962a3.53 3.53 0 0 0-3.532 3.532v8.633a3.53 3.53 0 0 0 3.532 3.532h8.633a3.53 3.53 0 0 0 3.532-3.532v-8.633a3.53 3.53 0 0 0-3.532-3.532h-8.633zm9.467 1.472a1.226 1.226 0 1 1 0 2.452 1.226 1.226 0 0 1 0-2.452zM17.5 12.595a4.902 4.902 0 0 1 4.905 4.906 4.906 4.906 0 1 1-4.905-4.906zm0 1.962a2.942 2.942 0 1 0 0 5.884 2.942 2.942 0 0 0 0-5.884z"/><defs><radialGradient id="a" cx="0" cy="0" r="1" gradientTransform="rotate(-115.776 27.253 10.582) scale(47.7289 70.9914)" gradientUnits="userSpaceOnUse"><stop offset=".244" stop-color="#ff1b90"/><stop offset=".437" stop-color="#f80261"/><stop offset=".688" stop-color="#ed00c0"/><stop offset=".777" stop-color="#c500e9"/><stop offset=".893" stop-color="#7017ff"/></radialGradient><radialGradient id="b" cx="0" cy="0" r="1" gradientTransform="rotate(-57.44 37.18 5.319) scale(20.6805 21.5107)" gradientUnits="userSpaceOnUse"><stop stop-color="#ffd600"/><stop offset=".484" stop-color="#ff6930"/><stop offset=".734" stop-color="#fe3b36"/><stop offset="1" stop-color="#fe3b36" stop-opacity="0"/></radialGradient></defs></svg>
